src/assets/duotone/Ram2.svg

<svg width="24" height="24" viewBox="0 0 24 24"  xmlns="http://www.w3.org/2000/svg">
<path opacity="0.4" d="M18.5 10V12.17C18.5 12.7 18.71 13.21 19.09 13.59L19.91 14.41C20.29 14.79 20.5 15.3 20.5 15.83V17C20.5 20 18.97 22 15.5 22H8.5C4.97 22 3.5 20 3.5 17V7C3.5 4.08 4.9 2.1 8.24 2.01C8.32 2 8.41 2 8.5 2H15.5C15.58 2 15.66 2 15.74 2.01C19.04 2.09 20.5 4.07 20.5 7V8C20.5 8.55 20.05 9 19.5 9C18.95 9 18.5 9.45 18.5 10Z" />
<path d="M9.74016 2L9.69016 4.96C9.68016 5.37 9.35016 5.7 8.94016 5.7H8.93016C8.51016 5.69 8.18016 5.35 8.19016 4.93L8.24016 2.01C8.32016 2 8.41016 2 8.50016 2H9.74016Z" />
<path d="M12.7402 2L12.6902 4.95C12.6802 5.35 12.3502 5.68 11.9402 5.68H11.9302C11.5102 5.67 11.1802 5.33 11.1902 4.92L11.2402 2H12.7402Z" />
<path d="M15.7402 2.01L15.6902 4.89C15.6802 5.3 15.3502 5.63 14.9402 5.63H14.9302C14.5102 5.62 14.1802 5.28 14.1902 4.87L14.2402 2H15.5002C15.5802 2 15.6602 2 15.7402 2.01Z" />
<path d="M16.02 21.98C15.85 21.99 15.68 22 15.51 22H8.50998C8.32998 22 8.15998 22 7.99998 21.98L7.97998 19C7.97998 17.9 8.86998 17 9.97998 17H13.99C15.09 17 15.98 17.89 15.99 18.99L16.02 21.98Z" />
</svg>

<?xml version="1.0" encoding="UTF-8"?>
<svg width="24" height="24" viewBox="0 0 24 24" xmlns="http://www.w3.org/2000/svg">
 <path d="m18.5 10v2.17c0 0.53 0.21 1.04 0.59 1.42l0.82 0.82c0.38 0.38 0.59 0.89 0.59 1.42v1.17c0 3-1.53 5-5 5h-7c-3.53 0-5-2-5-5v-10c0-2.92 1.4-4.9 4.74-4.99 0.08-0.01 0.17-0.01 0.26-0.01h7c0.08 0 0.16 0 0.24 0.01 3.3 0.08 4.76 2.06 4.76 4.99v1c0 0.55-0.45 1-1 1s-1 0.45-1 1z" opacity=".4"/>
 <path d="m9.7402 2-0.05 2.96c-0.01 0.41-0.34 0.74-0.75 0.74h-0.01c-0.42-0.01-0.75-0.35-0.74-0.77l0.05-2.92c0.08-0.01 0.17-0.01 0.26-0.01h1.24z"/>
 <path d="m12.74 2-0.05 2.95c-0.01 0.4-0.34 0.73-0.75 0.73h-0.01c-0.42-0.01-0.75-0.35-0.74-0.76l0.05-2.92h1.5z"/>
 <path d="m15.74 2.01-0.05 2.88c-0.01 0.41-0.34 0.74-0.75 0.74h-0.01c-0.42-0.01-0.75-0.35-0.74-0.76l0.05-2.87h1.26c0.08 0 0.16 0 0.24 0.01z"/>
 <path d="m16.02 21.98c-0.17 0.01-0.34 0.02-0.51 0.02h-7c-0.18 0-0.35 0-0.51-0.02l-0.02-2.98c0-1.1 0.89-2 2-2h4.01c1.1 0 1.99 0.89 2 1.99l0.03 2.99z"/>
</svg>
